X:354
T: Bonny Lass to Marry Me
N: O'Farrell's Pocket Companion v.4 (Sky ed. p.153)
N: Reminiscent of "Britches Full of Stitches"
M: C
L: 1/8
Q: 240
R: hornpipe
K: G
D| GGBG AGBG| DGBG AG E2| GGBG cBAB| GAGE EDD :|
z| dedB AGAB| dgBg AG E2| de/f/gB AGAB| GAGE EDD :|
